X:186
T:Le quadrille Beauharnois
T:La gigue du touriste
S:Laurence Beaudry
Z:robin.beech@mcgill.ca
M:6/8
L:1/8
K:C
e |:gec cBc | dBG G2F | AFG ABc | edc d2g |
gec cBc | dBG G2F | EFG ABc | dcB c2e ::
gec c2a | age c2e | gec cBc | dBG G2g |
gec c2a | age c2e | gec BAB | c3c'2e :|

